!!!COM: Bach, Johann Sebastian
!!!OTL: 183. Nun freut euch, lieben Christen, g'mein
!!!ONM: No. 183
!!!OCL: Erk
!!!SCA: BWV 388
!!!YOE: Riemenschneider, Albert
!!!OPR: 371 Harmonized Chorales and 69 Chorale Melodies with Figured Bass
!!!OPT: Bach Chorale Harmonizations
**harm	**root	**kern	**kern	**kern	**kern
!	!	!bass	!tenor	!alto	!sprno
*Iorgan	*Iorgan	*Iorgan	*Iorgan	*Iorgan	*Iorgan
*>[A,A,B]	*>[A,A,B]	*>[A,A,B]	*>[A,A,B]	*>[A,A,B]	*>[A,A,B]
*>norep[A,B]	*>norep[A,B]	*>norep[A,B]	*>norep[A,B]	*>norep[A,B]	*>norep[A,B]
*>A	*>A	*>A	*>A	*>A	*>A
*k[f#c#g#d#]	*k[f#c#g#d#]	*k[f#c#g#d#]	*k[f#c#g#d#]	*k[f#c#g#d#]	*k[f#c#g#d#]
*E:	*E:	*E:	*E:	*E:	*E:
*met(c)	*met(c)	*met(c)	*met(c)	*met(c)	*met(c)
*M4/4	*M4/4	*M4/4	*M4/4	*M4/4	*M4/4
*MM60	*MM60	*MM60	*MM60	*MM60	*MM60
I	4GG	8EE	8G#	4B	4e
.	.	8FF#	8F#	.	.
=1	=1	=1	=1	=1	=1
Ib	4GG	8GG#	4E	4B	4e
.	.	8AA	.	.	.
V	4DD	8BB	4D#	4F#	4B
.	.	8AA	.	.	.
Ib	4GG	4GG#	[4E	4B	4e
viib	4FF#	4FF#	8E]	4f#	4a
.	.	.	8D#	.	.
=2	=2	=2	=2	=2	=2
I	4GG	8EE	4.E	4B	4g#
.	.	8GG#	.	.	.
V	4DD	4BB	.	8.B	4f#
.	.	.	8D#	.	.
.	.	.	.	16A	.
I;	4GG;	4EE;	4BB;	4G#;	4e;
vi	4EE	4C#	4E	8G#	4e
.	.	.	.	8A#	.
=3	=3	=3	=3	=3	=3
V	8DD	4BB	8D#	8B	8f#
viioD7c/ii	8GG#	.	8E#	8d	8g#
ii	4AA	4FF#	4F#	8c#	4a
.	.	.	.	8d#	.
Ib	4GG	8GG#	8BB	4e	4g#
.	.	8AA	8C#	.	.
V	4DD	4BB	4D#	8B	4f#
.	.	.	.	16F#	.
.	.	.	.	16G#	.
=4	=4	=4	=4	=4	=4
IV	4CC	8AA	4E	2A	4c#
.	.	8GG#	.	.	.
viib	4FF#	4FF#	4F#	.	4d#
I;	4GG;	4EE;	4BB;	4G#;	4e;
=:|!	=:|!	=:|!	=:|!	=:|!	=:|!
*>B	*>B	*>B	*>B	*>B	*>B
!! Continuing.
I	4GG	8E	4G#	4B	4e
.	.	8D#	.	.	.
=5	=5	=5	=5	=5	=5
IVb	8CC	8C#	8c#	8e	4a
V7b	8DD	8D#	8B	[8f#	.
I	4GG	[4E	4B	8f#]	4g#
.	.	.	.	16e	.
.	.	.	.	16d#	.
V7d/V	4AA	8E]	4A#	4c#	4f#
.	.	16F#	.	.	.
.	.	16E	.	.	.
Vb	8DD	8D#	4B	8f#	4b
iii	8BB	8G#	.	8d#	.
=6	=6	=6	=6	=6	=6
!!linebreak: 2
vi7b	4EE	4E	8G#	8c#	4b
.	.	.	8C#	[8e	.
V7/V	4AA	8F#	4F#	8e]	4a#
.	.	8FF#	.	16d#	.
.	.	.	.	16c#	.
V;	4DD;	4BB;	4F#;	4d#;	4b;
Ib	4GG	4GG#	[4B	4e	4b
=7	=7	=7	=7	=7	=7
IV	4CC	8AA	8B]	4e	4cc#
.	.	8BB	16A	.	.
.	.	.	16G#	.	.
IVb	4CC	4C#	8A	4e	4a
.	.	.	8c#	.	.
Vb	8DD	8D#	8B	8f#	4.b
V7	8DD	8BB	8A	8d#	.
vi7	8EE	8C#	8G#	8e	.
vii	8FF#	8D#	8F#	[8f#	8a
=8	=8	=8	=8	=8	=8
I	4GG	4E	16G#	8f#]	4g#
.	.	.	16A	.	.
.	.	.	4B	4e	.
V	4DD	4BB	.	.	4f#
.	.	.	8A	8d#	.
vi;	4EE;	4C#;	4G#;	4c#;	4e;
vi	4EE	4C#	4E	[4c#	4g#
=9	=9	=9	=9	=9	=9
Vb	4DD	4D#	4F#	8c#]	4f#
.	.	.	.	16B	.
.	.	.	.	16A	.
I	4GG	8E	8E	4G#	4B
.	.	8D#	8F#	.	.
vi	4EE	4C#	4G#	8c#	4e
.	.	.	.	8B	.
ii	4AA	4FF#	4F#	8c#	4a
.	.	.	.	8d#	.
=10	=10	=10	=10	=10	=10
Ib	4GG	8GG#	[4B	4.e	4g#
.	.	8AA	.	.	.
V	4DD	4BB	8.B]	.	4f#
.	.	.	.	8d#	.
.	.	.	16A	.	.
I;	4GG;	4EE;	4G#;	4B;	4e;
==	==	==	==	==	==
*-	*-	*-	*-	*-	*-
!!!CDT: 1685/3//-1750/7/28
!!!OCY: Deutschland
!!!AGN: chorale
!!!AST: Baroque
!!!AIN: vox
!!!YOY: 1941
!!!PPP: New York; London
!!!PPR: G. Schirmer
!!!ENC: David Huron
!!!EED: David Huron
!!!YEN: United States of America
!!!YER: 1992
!!!YEC: Copyright 1992 David Huron
!!!YEM: Rights to all derivative electronic formats reserved.
!!!YER: March 20, 1996
!!!AMT: simple quadruple
!!!EEV: 1.1
!!chor2scor: -l 2 -s 0.6 -o %b.pmx
